fs/ram_20_regular.svg

<svg viewBox="0 0 20 20" fill="none" xmlns="http://www.w3.org/2000/svg" height="1em" width="1em">
  <path d="M16.0391 4C16.2995 4 16.5469 4.05208 16.7812 4.15625C17.0156 4.26042 17.224 4.40365 17.4062 4.58594C17.5885 4.76823 17.7318 4.97656 17.8359 5.21094C17.9401 5.44531 17.9948 5.69531 18 5.96094V11C18 11.3542 17.9115 11.6875 17.7344 12C17.5573 12.3125 17.3125 12.5573 17 12.7344V14.5C17 14.7031 16.9609 14.8958 16.8828 15.0781C16.8047 15.2604 16.6979 15.4193 16.5625 15.5547C16.4271 15.6901 16.2656 15.7995 16.0781 15.8828C15.8906 15.9661 15.6979 16.0052 15.5 16H11.5C11.3646 16 11.2474 15.9505 11.1484 15.8516L10 14.7031L8.85156 15.8516C8.7526 15.9505 8.63542 16 8.5 16H4.5C4.29688 16 4.10417 15.9609 3.92188 15.8828C3.73958 15.8047 3.58073 15.6979 3.44531 15.5625C3.3099 15.4271 3.20052 15.2656 3.11719 15.0781C3.03385 14.8906 2.99479 14.6979 3 14.5V12.7344C2.69271 12.5573 2.45052 12.3125 2.27344 12C2.09635 11.6875 2.00521 11.3542 2 11V5.96094C2 5.70052 2.05208 5.45312 2.15625 5.21875C2.26042 4.98438 2.40365 4.77604 2.58594 4.59375C2.76823 4.41146 2.97656 4.26823 3.21094 4.16406C3.44531 4.0599 3.69531 4.00521 3.96094 4H16.0391ZM17 6C17 5.86458 16.974 5.73698 16.9219 5.61719C16.8698 5.4974 16.7995 5.39062 16.7109 5.29688C16.6224 5.20312 16.5156 5.13021 16.3906 5.07812C16.2656 5.02604 16.1354 5 16 5H4C3.85938 5 3.72917 5.02604 3.60938 5.07812C3.48958 5.13021 3.38542 5.20052 3.29688 5.28906C3.20833 5.3776 3.13542 5.48438 3.07812 5.60938C3.02083 5.73438 2.99479 5.86458 3 6V11C3 11.1406 3.02604 11.2708 3.07812 11.3906C3.13021 11.5104 3.20052 11.6172 3.28906 11.7109C3.3776 11.8047 3.48177 11.875 3.60156 11.9219C3.72135 11.9688 3.85417 11.9948 4 12H16C16.1406 12 16.2708 11.974 16.3906 11.9219C16.5104 11.8698 16.6146 11.7995 16.7031 11.7109C16.7917 11.6224 16.8646 11.5156 16.9219 11.3906C16.9792 11.2656 17.0052 11.1354 17 11V6ZM15 6C15.1354 6 15.263 6.02604 15.3828 6.07812C15.5026 6.13021 15.6094 6.20052 15.7031 6.28906C15.7969 6.3776 15.8698 6.48438 15.9219 6.60938C15.974 6.73438 16 6.86458 16 7V10C16 10.1406 15.974 10.2708 15.9219 10.3906C15.8698 10.5104 15.7995 10.6146 15.7109 10.7031C15.6224 10.7917 15.5156 10.8646 15.3906 10.9219C15.2656 10.9792 15.1354 11.0052 15 11H5C4.85938 11 4.72917 10.974 4.60938 10.9219C4.48958 10.8698 4.38281 10.7995 4.28906 10.7109C4.19531 10.6224 4.125 10.5182 4.07812 10.3984C4.03125 10.2786 4.00521 10.1458 4 10V7C4 6.85938 4.02604 6.72917 4.07812 6.60938C4.13021 6.48958 4.20052 6.38542 4.28906 6.29688C4.3776 6.20833 4.48438 6.13542 4.60938 6.07812C4.73438 6.02083 4.86458 5.99479 5 6H15ZM7.5 7H5V10H7.5V7ZM11.5 10V7H8.5V10H11.5ZM12.5 10H15V7H12.5V10ZM16 13H4V14.5C4 14.6354 4.04948 14.7526 4.14844 14.8516C4.2474 14.9505 4.36458 15 4.5 15H8.29688L9.64844 13.6484C9.7474 13.5495 9.86458 13.5 10 13.5C10.1354 13.5 10.2526 13.5495 10.3516 13.6484L11.7109 15H15.5C15.6354 15 15.7526 14.9505 15.8516 14.8516C15.9505 14.7526 16 14.6354 16 14.5V13Z" fill="#212121"/>
</svg>

<svg viewBox="0 0 20 20" fill="none" xmlns="http://www.w3.org/2000/svg" height="1em" width="1em">
  <path d="M16.04 4c.26 0 .507.052.741.156.235.104.443.248.625.43.183.182.326.39.43.625.104.234.159.484.164.75V11c0 .354-.088.688-.266 1a1.914 1.914 0 0 1-.734.734V14.5a1.505 1.505 0 0 1-.922 1.383c-.187.083-.38.122-.578.117h-4a.48.48 0 0 1-.352-.148L10 14.703l-1.148 1.149A.48.48 0 0 1 8.5 16h-4a1.505 1.505 0 0 1-1.383-.922A1.322 1.322 0 0 1 3 14.5v-1.766A1.93 1.93 0 0 1 2.273 12 2.06 2.06 0 0 1 2 11V5.96c0-.26.052-.507.156-.741a2.06 2.06 0 0 1 .43-.625 2.06 2.06 0 0 1 .625-.43A1.92 1.92 0 0 1 3.96 4h12.078ZM17 6a.95.95 0 0 0-.078-.383 1.103 1.103 0 0 0-.211-.32.922.922 0 0 0-.32-.219A1.006 1.006 0 0 0 16 5H4a.97.97 0 0 0-.703.29 1.09 1.09 0 0 0-.219.32A.847.847 0 0 0 3 6v5c0 .14.026.27.078.39.052.12.123.227.211.32a.852.852 0 0 0 .313.212c.12.047.252.073.398.078h12a.969.969 0 0 0 .703-.29c.089-.088.162-.194.219-.32A.847.847 0 0 0 17 11V6Zm-2 0a.95.95 0 0 1 .383.078c.12.052.226.123.32.211a.922.922 0 0 1 .219.32c.052.125.078.256.078.391v3a.969.969 0 0 1-.29.703 1.088 1.088 0 0 1-.32.219A.847.847 0 0 1 15 11H5a.969.969 0 0 1-.39-.078 1.103 1.103 0 0 1-.32-.211.851.851 0 0 1-.212-.313A1.205 1.205 0 0 1 4 10V7a.97.97 0 0 1 .29-.703 1.09 1.09 0 0 1 .32-.219A.847.847 0 0 1 5 6h10ZM7.5 7H5v3h2.5V7Zm4 3V7h-3v3h3Zm1 0H15V7h-2.5v3Zm3.5 3H4v1.5c0 .135.05.253.148.352A.48.48 0 0 0 4.5 15h3.797l1.351-1.352A.48.48 0 0 1 10 13.5a.48.48 0 0 1 .352.148L11.71 15h3.79a.48.48 0 0 0 .352-.148A.48.48 0 0 0 16 14.5V13Z" fill="#212121"/>
</svg>
